Sources/FrostedUI/Resources/Icons.xcassets/quoteRight16.imageset/quote-right-16.svg

<svg width="16" height="16" viewBox="0 0 16 16" fill="none" xmlns="http://www.w3.org/2000/svg" data-fui-icon="true">
  <path
    d="M4.32617 3.33301C5.96254 3.33301 7.31265 4.62611 7.32031 6.25C7.41182 7.98619 7.03384 9.22898 6.31152 10.2246C5.60461 11.1989 4.59356 11.8949 3.53027 12.5859C3.29884 12.7362 2.98936 12.6707 2.83887 12.4395C2.6884 12.2079 2.75385 11.8976 2.98535 11.7471C4.05914 11.0493 4.91871 10.4429 5.50293 9.6377C5.70876 9.35397 5.88379 9.03981 6.01953 8.68066C5.53662 9.0052 4.95217 9.19434 4.32617 9.19434C2.68533 9.1941 1.33301 7.89397 1.33301 6.26367C1.33312 4.63348 2.6854 3.33324 4.32617 3.33301ZM11.6602 3.33301C13.2964 3.33315 14.6457 4.6262 14.6533 6.25C14.7448 7.98599 14.3677 9.22904 13.6455 10.2246C12.9386 11.1988 11.9274 11.8949 10.8643 12.5859C10.6328 12.7364 10.3224 12.6709 10.1719 12.4395C10.0214 12.2079 10.0878 11.8976 10.3193 11.7471C11.3929 11.0494 12.2518 10.4428 12.8359 9.6377C13.0418 9.35395 13.2168 9.03985 13.3525 8.68066C12.8697 9.0051 12.286 9.19428 11.6602 9.19434C10.0191 9.19434 8.66699 7.89412 8.66699 6.26367C8.6671 4.63334 10.0192 3.33301 11.6602 3.33301Z"
    fill="currentColor"
  />
</svg>

<svg xmlns="http://www.w3.org/2000/svg" width="16" height="16" fill="none" data-fui-icon="true" viewBox="0 0 16 16"><path fill="currentColor" d="M4.326 3.333c1.637 0 2.987 1.293 2.994 2.917.092 1.736-.286 2.979-1.008 3.975-.707.974-1.718 1.67-2.782 2.36a.5.5 0 1 1-.545-.838c1.074-.698 1.934-1.304 2.518-2.11a4 4 0 0 0 .517-.956 3.03 3.03 0 0 1-1.694.513c-1.64 0-2.993-1.3-2.993-2.93s1.352-2.93 2.993-2.931m7.334 0c1.636 0 2.986 1.293 2.993 2.917.092 1.736-.285 2.979-1.008 3.975-.706.974-1.718 1.67-2.78 2.36a.5.5 0 1 1-.546-.838c1.074-.698 1.933-1.304 2.517-2.11.206-.283.38-.597.516-.956a3.03 3.03 0 0 1-1.692.513c-1.64 0-2.993-1.3-2.993-2.93s1.352-2.931 2.993-2.931"/></svg>
